.storybook/public/story-assets/icon_2_light.svg

<svg width="32" height="32" viewBox="0 0 32 32" fill="none" xmlns="http://www.w3.org/2000/svg">
<path fill-rule="evenodd" clip-rule="evenodd" d="M23 6H9C7.34315 6 6 7.34315 6 9V23C6 24.6569 7.34315 26 9 26H23C24.6569 26 26 24.6569 26 23V9C26 7.34315 24.6569 6 23 6ZM9 3C5.68629 3 3 5.68629 3 9V23C3 26.3137 5.68629 29 9 29H23C26.3137 29 29 26.3137 29 23V9C29 5.68629 26.3137 3 23 3H9Z" fill="#262626"/>
</svg>

<svg xmlns="http://www.w3.org/2000/svg" width="32" height="32" fill="none"><path fill="#262626" fill-rule="evenodd" d="M23 6H9a3 3 0 0 0-3 3v14a3 3 0 0 0 3 3h14a3 3 0 0 0 3-3V9a3 3 0 0 0-3-3M9 3a6 6 0 0 0-6 6v14a6 6 0 0 0 6 6h14a6 6 0 0 0 6-6V9a6 6 0 0 0-6-6z" clip-rule="evenodd"/></svg>
